X:8191
T:Johnny Harling's
C:Johnny Harling
R:Reel
A:Ireland
S:Joel Shore
M:C|
L:1/8
K:Edor
D2|~E3 B GE ~E2 | DE{F}ED  {A}GFED | ~E3 B GE ~E2 | (3Bcd ed e2 ef|
gB ~B2 gedB | AF ~F2 dBAF | ~E3 B GE ~E2 | DE (3FED E2 :|
d2|~e3 f g3 a | ge ~e2 dBAF | D2 (3FED ADFD | de {f}ed gfed |
~e3 f g3 a | ge ~e2 dBAF | D2 (3FED ADFA | dBAF E2 |
d2|{f}ed (3Bcd ed (3Bcd | gBfB eBdA | D2 (3FED ADFD |de{f}ed gfed|
~e3 f ~g3 a | ge ~e2 dBAF | D2 (3FED {B}ADFA | dBAF E2 ||
